!!!!SEGMENT: pl-sa--143-a-iii-43--001-007_anonim--missa-gregoriano-canto-benedictus.krn
!!!cenid: 18xx:1292
!!!COM: Anonim
!!!COM-rismID: pe30004985
!!!CDT:
!!!CNT:
!!!OPR: Missa Gregoriano Canto
!!!OTL: Benedictus
!!!OMV: 007
!!!PDT: 1815
!!!AGN: Sacred; Mass
!!!SMS-siglum: PL-SA
!!!SMS-shelfmark: 143/A III 43
!!!SMS-shelfwork: 001-007 M
!!!SMS-variant:
!!!SMS-altvar:
!!!NIFC-rismSourceID: 1001035509
!!!NIFC-rismChildID: 1001035509
!!!NIFC-islandoraID: none
!!!URL-pdf-islandora:
!!!URL-scan: https://bc.bdsandomierz.pl/dlibra/publication/1500/edition/1468/content @EN{Scan in the Sandomierz Diocese Digital Library} @PL{Skany w portalu Cyfrowa Biblioteka Diecezjalna w Sandomierzu}
!!!IIIF:
!!!ONB-nifc: UWAGA: części Mszy: 1. Kyrie, 2. Et in terra, 3. Patrem,. 4. Et incarnatus, 5. Et resurrexit, 6. Sanctus, 7. Benedictus, 8. Agnus Dei
!!!AIN: 1 organ 2 soprn
!!!key: F
**kern	**kern	**dynam	**kern	**text	**kern	**text
*part3	*part3	*part3	*part2	*part2	*part1	*part1
*staff4	*staff3	*	*staff2	*staff2	*staff1	*staff1
*I"Organo.	*I"Organo.	*	*I"Canto 2do.	*	*I"Canto_Primo.	*
*I'org	*I'org	*	*I'S 2	*	*I'S 1	*
*Iorgan	*Iorgan	*	*Isoprn	*	*Isoprn	*
*ICklav	*ICklav	*	*ICvox	*	*ICvox	*
*IGacmp	*IGacmp	*	*	*	*	*
*clefF4	*clefC1	*	*clefC1	*	*clefC1	*
*k[b-]	*k[b-]	*	*k[b-]	*	*k[b-]	*
*F:	*F:	*	*F:	*	*F:	*
*M2/2	*M2/2	*	*M2/2	*	*M2/2	*
*met(c|)	*met(c|)	*	*met(c|)	*	*met(c|)	*
=1	=1	=1	=1	=1	=1	=1
*2\right	*2\right	*	*2\right	*	*2\right	*
!	!LO:TX:b:i:t=Benedictus	!	!	!	!	!
!LO:TX:t=P:problem=metrum obrócone	!LO:TX:t=P:problem=metrum obrócone	!	!LO:TX:t=P:problem=metrum obrócone	!	!LO:TX:t=P:problem=metrum obrócone	!
2F\	2cc\	.	2a\	Be-	2cc\	Be-
2F\	4cc\	.	4a\	.	4cc\	.
.	4dd\	.	4b-\	-ne-	4dd\	-ne-
=2	=2	=2	=2	=2	=2	=2
2E\	2b-\	.	2g\	-dic-	2b-\	-dic-
4C\	4g\	.	4e/	-tus	4g\	-tus
4E\	4b-\	.	4g/	qvi	4b-\	qvi
=3	=3	=3	=3	=3	=3	=3
2F\	2a\	.	2f/	ve-	2a\	ve-
2B-\	2dd\	.	2b-\	.	2dd\	.
=4	=4	=4	=4	=4	=4	=4
4A\	1cc	.	1a	-nit	1cc	-nit
4F\	.	.	.	.	.	.
4C/	.	.	.	.	.	.
4AA/	.	.	.	.	.	.
!	!	!	!	!	!LO:LB:g=original	!
=5	=5	=5	=5	=5	=5	=5
2A\	2cc\	.	2a\	in	2cc\	in
4B-\	4dd\	.	4b-\	No-	4dd\	No-
4A\	4cc\	.	4a\	.	4cc\	.
=6	=6	=6	=6	=6	=6	=6
4B-\	4dd\	.	4b-\	-mi-	4dd\	-mi-
4A\	4cc\	.	4a\	.	4cc\	.
4G\	4b-\	.	4g\	-ne	4b-\	-ne
4F\	4a\	.	4f\	.	4a\	.
=7	=7	=7	=7	=7	=7	=7
2E\	2a\	.	2f/	Do-	2a\	Do-
2C/	2g\	.	2e/	-mi-	2g\	-mi-
!	!	!	!LO:LB:g=original	!	!	!
=8	=8	=8	=8	=8	=8	=8
1C	1g 1c	.	1e	-ni	1g	-ni
!LO:LB:g=original	!LO:LB:g=original	!	!	!	!	!
=9	=9	=9	=9	=9	=9	=9
4F 4C/	4b-\	.	2c/	Be-	4b-\	Be-
4F 4C/	4a\	.	.	.	4a\	.
4F 4C/	4g\	.	2c/	-ne-	4g\	.
4F 4C/	4f\	.	.	.	4f\	-ne
=10	=10	=10	=10	=10	=10	=10
4F 4C/	4b-\	.	2c/	-dic-	4b-\	di-
4F 4C/	4a\	.	.	.	4a\	.
4F 4C/	4g\	.	2c/	-tus	4g\	-ctus
4F 4C/	4f\	.	.	.	4f\	qvi
=11	=11	=11	=11	=11	=11	=11
4C/	2e/	.	2c/	qvi	2e/	ve-
4C/	.	.	.	.	.	.
4C/	2f/	.	2d/	ve-	2f/	.
4C/	.	.	.	.	.	.
=12	=12	=12	=12	=12	=12	=12
4C/	2.g/	.	2e/	-nit	2.g\	.
4C/	.	.	.	.	.	.
4C/	.	.	2r	.	.	.
4C/	4c/	.	.	.	4c/	-nit
=13	=13	=13	=13	=13	=13	=13
*^	*	*	*	*	*	*
4A/	4F\	4cc\	.	4a\	Be-	4cc\	Be-
4A/	4F\	4b-\	.	4g\	.	4b-\	.
4A/	4F\	4a\	.	4f\	.	4a\	.
4A/	4F\	4g\	.	4c/	-ne	4g\	-ne
=14	=14	=14	=14	=14	=14	=14	=14
4A/	4F\	4cc\	.	4a\	dic-	4cc\	dic-
4A/	4F\	4b-\	.	4g\	.	4b-\	.
4A/	4F\	4a\	.	4f\	.	4a\	-tus
4A/	4F\	4g\	.	4c/	-tus	4g\	qvi
*v	*v	*	*	*	*	*	*
=15	=15	=15	=15	=15	=15	=15
4F\	2f/	.	2a\	qvi	2f/	ve-
4F\	.	.	.	.	.	.
4F\	2g/	.	2b-\	ve-	2g/	.
4F\	.	.	.	.	.	.
=16	=16	=16	=16	=16	=16	=16
4F\	2.a\	.	2cc\	-nit	2.a\	.
4F\	.	.	.	.	.	.
4F\	.	.	2r	.	.	.
4F\	4f/	.	.	.	4f/	-nit
!	!	!	!	!	!LO:LB:g=original	!
=17	=17	=17	=17	=17	=17	=17
4A\	2cc\	.	2a\	Be-	2cc\	Be-
4F\	.	.	.	.	.	.
4A\	2a\	.	2f\	-ne-	2a\	-ne-
4F\	.	.	.	.	.	.
!LO:PB:g=original	!LO:PB:g=original	!	!	!	!	!
=18	=18	=18	=18	=18	=18	=18
4B-\	4dd\	.	4b-\	-dic-	4dd\	-dic-
4G\	4cc\	.	4a\	.	4cc\	.
4B-\	2b-\	.	2g\	-tus	2b-\	-tus
4G\	.	.	.	.	.	.
=19	=19	=19	=19	=19	=19	=19
4G\	2b-\	.	2g/	qvi	2b-\	qvi
4E\	.	.	.	.	.	.
4G\	2g\	.	2e/	.	2g\	.
4E\	.	.	.	.	.	.
=20	=20	=20	=20	=20	=20	=20
4A\	4cc\	.	4a\	ve-	4cc\	ve-
4F\	4b-\	.	4g\	.	4b-\	.
4A\	2a\	.	2f/	-nit	2a\	-nit
4F\	.	.	.	.	.	.
=21	=21	=21	=21	=21	=21	=21
2F\	4f/	.	4f/	in	4f/	In
.	4a/	.	4f/	No-	4a/	.
2E\	4g/	.	4e/	.	4g/	No-
.	4b-/	.	4g/	.	4b-/	.
!	!	!	!LO:LB:g=original	!	!	!
=22	=22	=22	=22	=22	=22	=22
!	!	!LO:DY:t=f.	!	!	!	!
2F\	4a\	f	4f/	-mi-	4a\	-mi-
.	4cc\	.	4a/	.	4cc\	.
2G\	4b-\	.	4g/	-ne	4b-\	-ne
.	4dd\	.	4b-/	.	4dd\	.
=23	=23	=23	=23	=23	=23	=23
4A\	2cc\	.	2a\	Do-	2cc\	Do-
4F\	.	.	.	.	.	.
4G\	4b-\	.	4g\	.	4b-\	.
4F\	4a\	.	4f\	.	4a\	.
=24	=24	=24	=24	=24	=24	=24
2C/	2b-\	.	2g\	.	2b-\	.
2C/	2b-\	.	2g\	-mi-	2b-\	-mi-
=25	=25	=25	=25	=25	=25	=25
1F 1C 1FF;	1a 1f 1c;	.	1f;	-ni	1a;	-ni
==	==	==	==	==	==	==
*-	*-	*-	*-	*-	*-	*-
!!!system-decoration: [(s1,s2)]{(s3,s4)}
!!!ENC: Berenika Jozajtis
!!!END: 2020-12-07
!!!ENC: Marta Lawrence
!!!END: 2022-03-27
!!!YEC: Copyright 2022 Narodowy Instytut Fryderyka Chopina (https://polishscores.org)
!!!YEM: License CC-BY-4.0 (https://creativecommons.org/licenses/by/4.0)
